src/actions/24/folder-new.svg

<svg viewBox="0 0 24 24" xmlns="http://www.w3.org/2000/svg">
 <defs>
  <style type="text/css">.ColorScheme-Text {
        color:#2e3440;
      }</style>
 </defs>
 <path class="ColorScheme-Text" d="m4 4v1 15h1 9v-1h-9v-8h3v-0.009766l0.0078125 0.009766 2-2h8.9922v5h1v-8h-6.9922l-2-2-0.007812 0.0097656v-0.0097656h-6-1zm13 11v2h-2v1h2v2h1v-2h2v-1h-2v-2h-1z" fill="currentColor"/>
</svg>

<svg xmlns="http://www.w3.org/2000/svg" viewBox="0 0 24 24">
  <defs id="defs3051">
    <style type="text/css" id="current-color-scheme">
      .ColorScheme-Text {
        color:#2e3440;
      }
      </style>
  </defs>
 <path style="fill:currentColor;fill-opacity:1;stroke:none" 
     d="M 4 4 L 4 5 L 4 20 L 5 20 L 14 20 L 14 19 L 5 19 L 5 11 L 8 11 L 8 10.990234 L 8.0078125 11 L 10.007812 9 L 19 9 L 19 14 L 20 14 L 20 6 L 13.007812 6 L 11.007812 4 L 11 4.0097656 L 11 4 L 5 4 L 4 4 z M 17 15 L 17 17 L 15 17 L 15 18 L 17 18 L 17 20 L 18 20 L 18 18 L 20 18 L 20 17 L 18 17 L 18 15 L 17 15 z "
     class="ColorScheme-Text"
     />
</svg>
